; generated by PrusaSlicer 2.2.0+win64 on 2021-04-27 at 13:43:52 UTC

; 

; external perimeters extrusion width = 0.45mm
; perimeters extrusion width = 0.45mm
; infill extrusion width = 0.45mm
; solid infill extrusion width = 0.45mm
; top infill extrusion width = 0.40mm
; first layer extrusion width = 0.42mm

M201 X500 Y500 Z100 E5000 ; sets maximum accelerations, mm/sec^2
M203 X500 Y500 Z10 E60 ; sets maximum feedrates, mm/sec
M204 P500 R1000 T500 ; sets acceleration (P, T) and retract acceleration (R), mm/sec^2
M205 X8.00 Y8.00 Z0.40 E5.00 ; sets the jerk limits, mm/sec
M205 S0 T0 ; sets the minimum extruding and travel feed rate, mm/sec
M107
G90 ; use absolute coordinates
M83 ; extruder relative mode
M104 S215 ; set extruder temp
M140 S40 ; set bed temp
M190 S40 ; wait for bed temp
M109 S215 ; wait for extruder temp
G28 ; home all
G1 Z2 F240
G1 X2 Y10 F3000
G1 Z0.28 F240
G92 E0.0
G1 Y190 E15.0 F1500.0 ; intro line
G1 X2.3 F5000
G1 Y10 E30 F1200.0 ; intro line
G92 E0.0
G21 ; set units to millimeters
G90 ; use absolute coordinates
M83 ; use relative distances for extrusion
; Filament gcode
;BEFORE_LAYER_CHANGE
;0.2


G1 E-5.00000 F3600.00000
G1 Z0.200 F9000.000
;AFTER_LAYER_CHANGE
;0.2
G1 X31.959 Y71.139
G1 E5.00000 F2400.00000
G1 F1200.000
G1 X32.495 Y70.772 E0.02036
G1 X33.009 Y70.585 E0.01716
G1 X33.553 Y70.521 E0.01716
G1 X186.446 Y70.521 E4.79388
G1 X187.348 Y70.700 E0.02884
G1 X188.112 Y71.206 E0.02872
G1 X188.630 Y71.967 E0.02884
G1 X188.819 Y72.867 E0.02884
G1 X188.819 Y147.144 E2.32891
G1 X188.720 Y147.782 E0.02024
G1 X188.453 Y148.369 E0.02024
G1 X188.038 Y148.864 E0.02024
G1 X187.505 Y149.228 E0.02024
G1 X186.991 Y149.415 E0.01716
G1 X186.447 Y149.479 E0.01716
G1 X33.542 Y149.479 E4.79424
G1 X32.900 Y149.386 E0.02036
G1 X32.303 Y149.121 E0.02048
G1 X31.801 Y148.703 E0.02048
G1 X31.431 Y148.165 E0.02048
G1 X31.245 Y147.654 E0.01704
G1 X31.180 Y147.111 E0.01716
G1 X31.181 Y72.864 E2.32795
G1 X31.279 Y72.222 E0.02036
G1 X31.544 Y71.634 E0.02024
G1 X31.920 Y71.185 E0.01836
G1 E-3.50000 F3600.00000
G1 F7200.000
G1 X32.495 Y70.772 E-0.33595
G1 X33.009 Y70.585 E-0.25996
G1 X33.553 Y70.521 E-0.25996
G1 X34.751 Y70.521 E-0.56913
G1 E-0.07500 F3600.00000
G1 X34.522 Y73.862 F9000.000
G1 E5.00000 F2400.00000
G1 F1200.000
G1 X185.478 Y73.862 E4.73315
G1 X185.478 Y74.493 E0.01978
G1 X185.205 Y74.493 E0.00857
G1 X185.205 Y145.507 E2.22659
G1 X185.478 Y145.507 E0.00857
G1 X185.478 Y146.138 E0.01978
G1 X34.522 Y146.138 E4.73315
G1 X34.522 Y73.922 E2.26427
G1 E-3.50000 F3600.00000
G1 F7200.000
G1 X37.522 Y73.921 E-1.42500
G1 E-0.07500 F3600.00000
G1 X185.582 Y74.870 F9000.000
G1 E5.00000 F2400.00000
G1 F1200.000
G1 X185.582 Y145.130 E2.20295
G1 X185.856 Y145.130 E0.00857
G1 X185.856 Y146.515 E0.04342
G1 X34.144 Y146.515 E4.75679
G1 X34.144 Y73.485 E2.28979
G1 X185.856 Y73.485 E4.75679
G1 X185.856 Y74.870 E0.04342
G1 X185.642 Y74.870 E0.00669
G1 X185.959 Y75.247 F9000.000
G1 F1200.000
G1 X185.959 Y144.753 E2.17930
G1 X186.233 Y144.753 E0.00857
G1 X186.233 Y146.892 E0.06707
G1 X33.767 Y146.892 E4.78044
G1 X33.767 Y73.108 E2.31344
G1 X186.233 Y73.108 E4.78044
G1 X186.233 Y75.247 E0.06707
G1 X186.019 Y75.247 E0.00669
G1 X185.605 Y75.432 F9000.000
G1 E-3.50000 F3600.00000
G1 F7200.000
G1 X186.017 Y78.247 E-1.42500
G1 E-0.07500 F3600.00000
G1 X34.635 Y145.260 F9000.000
G1 E5.00000 F2400.00000
G1 F1200.000
G1 X35.229 Y145.855 E0.02642
G1 X35.764 Y145.855 E0.01679
G1 X34.804 Y144.896 E0.04263
G1 X34.804 Y144.361 E0.01679
G1 X36.298 Y145.855 E0.06638
G1 X36.833 Y145.855 E0.01679
G1 X34.804 Y143.827 E0.09013
G1 X34.804 Y143.292 E0.01679
G1 X37.367 Y145.855 E0.11387
G1 X37.901 Y145.855 E0.01679
G1 X34.804 Y142.758 E0.13762
G1 X34.804 Y142.224 E0.01679
G1 X38.436 Y145.855 E0.16137
G1 X38.970 Y145.855 E0.01679
G1 X34.804 Y141.689 E0.18512
G1 X34.804 Y141.155 E0.01679
G1 X39.505 Y145.855 E0.20887
G1 X40.039 Y145.855 E0.01679
G1 X34.804 Y140.620 E0.23262
G1 X34.804 Y140.086 E0.01679
G1 X40.573 Y145.855 E0.25636
G1 X41.108 Y145.855 E0.01679
G1 X34.804 Y139.551 E0.28011
G1 X34.804 Y139.017 E0.01679
G1 X41.642 Y145.855 E0.30386
G1 X42.177 Y145.855 E0.01679
G1 X34.804 Y138.483 E0.32761
G1 X34.804 Y137.948 E0.01679
G1 X42.711 Y145.855 E0.35136
G1 X43.246 Y145.855 E0.01679
G1 X34.804 Y137.414 E0.37511
G1 X34.804 Y136.879 E0.01679
G1 X43.780 Y145.855 E0.39886
G1 X44.314 Y145.855 E0.01679
G1 X34.804 Y136.345 E0.42260
G1 X34.804 Y135.810 E0.01679
G1 X44.849 Y145.855 E0.44635
G1 X45.383 Y145.855 E0.01679
G1 X34.804 Y135.276 E0.47010
G1 X34.804 Y134.742 E0.01679
G1 X45.918 Y145.855 E0.49385
G1 X46.452 Y145.855 E0.01679
G1 X34.804 Y134.207 E0.51760
G1 X34.804 Y133.673 E0.01679
G1 X46.987 Y145.855 E0.54135
G1 X47.521 Y145.855 E0.01679
G1 X34.804 Y133.138 E0.56510
G1 X34.804 Y132.604 E0.01679
G1 X48.055 Y145.855 E0.58884
G1 X48.590 Y145.855 E0.01679
G1 X34.804 Y132.069 E0.61259
G1 X34.804 Y131.535 E0.01679
G1 X49.124 Y145.855 E0.63634
G1 X49.659 Y145.855 E0.01679
G1 X34.804 Y131.001 E0.66009
G1 X34.804 Y130.466 E0.01679
G1 X50.193 Y145.855 E0.68384
G1 X50.728 Y145.855 E0.01679
G1 X34.804 Y129.932 E0.70759
G1 X34.804 Y129.397 E0.01679
G1 X51.262 Y145.855 E0.73133
G1 X51.796 Y145.855 E0.01679
G1 X34.804 Y128.863 E0.75508
G1 X34.804 Y128.328 E0.01679
G1 X52.331 Y145.855 E0.77883
G1 X52.865 Y145.855 E0.01679
G1 X34.804 Y127.794 E0.80258
G1 X34.804 Y127.260 E0.01679
G1 X53.400 Y145.855 E0.82633
G1 X53.934 Y145.855 E0.01679
G1 X34.804 Y126.725 E0.85008
G1 X34.804 Y126.191 E0.01679
G1 X54.468 Y145.855 E0.87383
G1 X55.003 Y145.855 E0.01679
G1 X34.804 Y125.656 E0.89757
G1 X34.804 Y125.122 E0.01679
G1 X55.537 Y145.855 E0.92132
G1 X56.072 Y145.855 E0.01679
G1 X34.804 Y124.588 E0.94507
G1 X34.804 Y124.053 E0.01679
G1 X56.606 Y145.855 E0.96882
G1 X57.141 Y145.855 E0.01679
G1 X34.804 Y123.519 E0.99257
G1 X34.804 Y122.984 E0.01679
G1 X57.675 Y145.855 E1.01632
G1 X58.209 Y145.855 E0.01679
G1 X34.804 Y122.450 E1.04007
G1 X34.804 Y121.915 E0.01679
G1 X58.744 Y145.855 E1.06381
G1 X59.278 Y145.855 E0.01679
G1 X34.804 Y121.381 E1.08756
G1 X34.804 Y120.847 E0.01679
G1 X59.813 Y145.855 E1.11131
G1 X60.347 Y145.855 E0.01679
G1 X34.804 Y120.312 E1.13506
G1 X34.804 Y119.778 E0.01679
G1 X60.882 Y145.855 E1.15881
G1 X61.416 Y145.855 E0.01679
G1 X34.804 Y119.243 E1.18256
G1 X34.804 Y118.709 E0.01679
G1 X61.950 Y145.855 E1.20630
G1 X62.485 Y145.855 E0.01679
G1 X34.804 Y118.174 E1.23005
G1 X34.804 Y117.640 E0.01679
G1 X63.019 Y145.855 E1.25380
G1 X63.554 Y145.855 E0.01679
G1 X34.804 Y117.106 E1.27755
G1 X34.804 Y116.571 E0.01679
G1 X64.088 Y145.855 E1.30130
G1 X64.623 Y145.855 E0.01679
G1 X34.804 Y116.037 E1.32505
G1 X34.804 Y115.502 E0.01679
G1 X65.157 Y145.855 E1.34880
G1 X65.691 Y145.855 E0.01679
G1 X34.804 Y114.968 E1.37254
G1 X34.804 Y114.433 E0.01679
G1 X66.226 Y145.855 E1.39629
G1 X66.760 Y145.855 E0.01679
G1 X34.804 Y113.899 E1.42004
G1 X34.804 Y113.365 E0.01679
G1 X67.295 Y145.855 E1.44379
G1 X67.829 Y145.855 E0.01679
G1 X34.804 Y112.830 E1.46754
G1 X34.804 Y112.296 E0.01679
G1 X68.364 Y145.855 E1.49129
G1 X68.898 Y145.855 E0.01679
G1 X34.804 Y111.761 E1.51504
G1 X34.804 Y111.227 E0.01679
G1 X69.432 Y145.855 E1.53878
G1 X69.967 Y145.855 E0.01679
G1 X34.804 Y110.692 E1.56253
G1 X34.804 Y110.158 E0.01679
G1 X70.501 Y145.855 E1.58628
G1 X71.036 Y145.855 E0.01679
G1 X34.804 Y109.624 E1.61003
G1 X34.804 Y109.089 E0.01679
G1 X71.570 Y145.855 E1.63378
G1 X72.104 Y145.855 E0.01679
G1 X34.804 Y108.555 E1.65753
G1 X34.804 Y108.020 E0.01679
G1 X72.639 Y145.855 E1.68128
G1 X73.173 Y145.855 E0.01679
G1 X34.804 Y107.486 E1.70502
G1 X34.804 Y106.952 E0.01679
G1 X73.708 Y145.855 E1.72877
G1 X74.242 Y145.855 E0.01679
G1 X34.804 Y106.417 E1.75252
G1 X34.804 Y105.883 E0.01679
G1 X74.777 Y145.855 E1.77627
G1 X75.311 Y145.855 E0.01679
G1 X34.804 Y105.348 E1.80002
G1 X34.804 Y104.814 E0.01679
G1 X75.845 Y145.855 E1.82377
G1 X76.380 Y145.855 E0.01679
G1 X34.804 Y104.279 E1.84751
G1 X34.804 Y103.745 E0.01679
G1 X76.914 Y145.855 E1.87126
G1 X77.449 Y145.855 E0.01679
G1 X34.804 Y103.211 E1.89501
G1 X34.804 Y102.676 E0.01679
G1 X77.983 Y145.855 E1.91876
G1 X78.518 Y145.855 E0.01679
G1 X34.804 Y102.142 E1.94251
G1 X34.804 Y101.607 E0.01679
G1 X79.052 Y145.855 E1.96626
G1 X79.586 Y145.855 E0.01679
G1 X34.804 Y101.073 E1.99001
G1 X34.804 Y100.538 E0.01679
G1 X80.121 Y145.855 E2.01375
G1 X80.655 Y145.855 E0.01679
G1 X34.804 Y100.004 E2.03750
G1 X34.804 Y99.470 E0.01679
G1 X81.190 Y145.855 E2.06125
G1 X81.724 Y145.855 E0.01679
G1 X34.804 Y98.935 E2.08500
G1 X34.804 Y98.401 E0.01679
G1 X82.259 Y145.855 E2.10875
G1 X82.793 Y145.855 E0.01679
G1 X34.804 Y97.866 E2.13250
G1 X34.804 Y97.332 E0.01679
G1 X83.327 Y145.855 E2.15625
G1 X83.862 Y145.855 E0.01679
G1 X34.804 Y96.797 E2.17999
G1 X34.804 Y96.263 E0.01679
G1 X84.396 Y145.855 E2.20374
G1 X84.931 Y145.855 E0.01679
G1 X34.804 Y95.729 E2.22749
G1 X34.804 Y95.194 E0.01679
G1 X85.465 Y145.855 E2.25124
G1 X86.000 Y145.855 E0.01679
G1 X34.804 Y94.660 E2.27499
G1 X34.804 Y94.125 E0.01679
G1 X86.534 Y145.855 E2.29874
G1 X87.068 Y145.855 E0.01679
G1 X34.804 Y93.591 E2.32248
G1 X34.804 Y93.056 E0.01679
G1 X87.603 Y145.855 E2.34623
G1 X88.137 Y145.855 E0.01679
G1 X34.804 Y92.522 E2.36998
G1 X34.804 Y91.988 E0.01679
G1 X88.672 Y145.855 E2.39373
G1 X89.206 Y145.855 E0.01679
G1 X34.804 Y91.453 E2.41748
G1 X34.804 Y90.919 E0.01679
G1 X89.740 Y145.855 E2.44123
G1 X90.275 Y145.855 E0.01679
G1 X34.804 Y90.384 E2.46498
G1 X34.804 Y89.850 E0.01679
G1 X90.809 Y145.855 E2.48872
G1 X91.344 Y145.855 E0.01679
G1 X34.804 Y89.316 E2.51247
G1 X34.804 Y88.781 E0.01679
G1 X91.878 Y145.855 E2.53622
G1 X92.413 Y145.855 E0.01679
G1 X34.804 Y88.247 E2.55997
G1 X34.804 Y87.712 E0.01679
G1 X92.947 Y145.855 E2.58372
G1 X93.481 Y145.855 E0.01679
G1 X34.804 Y87.178 E2.60747
G1 X34.804 Y86.643 E0.01679
G1 X94.016 Y145.855 E2.63122
G1 X94.550 Y145.855 E0.01679
G1 X34.804 Y86.109 E2.65496
G1 X34.804 Y85.575 E0.01679
G1 X95.085 Y145.855 E2.67871
G1 X95.619 Y145.855 E0.01679
G1 X34.804 Y85.040 E2.70246
G1 X34.804 Y84.506 E0.01679
G1 X96.154 Y145.855 E2.72621
G1 X96.688 Y145.855 E0.01679
G1 X34.804 Y83.971 E2.74996
G1 X34.804 Y83.437 E0.01679
G1 X97.222 Y145.855 E2.77371
G1 X97.757 Y145.855 E0.01679
G1 X34.804 Y82.902 E2.79745
G1 X34.804 Y82.368 E0.01679
G1 X98.291 Y145.855 E2.82120
G1 X98.826 Y145.855 E0.01679
G1 X34.804 Y81.834 E2.84495
G1 X34.804 Y81.299 E0.01679
G1 X99.360 Y145.855 E2.86870
G1 X99.895 Y145.855 E0.01679
G1 X34.804 Y80.765 E2.89245
G1 X34.804 Y80.230 E0.01679
G1 X100.429 Y145.855 E2.91620
G1 X100.963 Y145.855 E0.01679
G1 X34.804 Y79.696 E2.93995
G1 X34.804 Y79.161 E0.01679
G1 X101.498 Y145.855 E2.96369
G1 X102.032 Y145.855 E0.01679
G1 X34.804 Y78.627 E2.98744
G1 X34.804 Y78.093 E0.01679
G1 X102.567 Y145.855 E3.01119
G1 X103.101 Y145.855 E0.01679
G1 X34.804 Y77.558 E3.03494
G1 X34.804 Y77.024 E0.01679
G1 X103.636 Y145.855 E3.05869
G1 X104.170 Y145.855 E0.01679
G1 X34.804 Y76.489 E3.08244
G1 X34.804 Y75.955 E0.01679
G1 X104.704 Y145.855 E3.10619
G1 X105.239 Y145.855 E0.01679
G1 X34.804 Y75.420 E3.12993
G1 X34.804 Y74.886 E0.01679
G1 X105.773 Y145.855 E3.15368
G1 X106.308 Y145.855 E0.01679
G1 X34.804 Y74.352 E3.17743
G1 X34.804 Y74.145 E0.00649
G1 X35.132 Y74.145 E0.01030
G1 X106.842 Y145.855 E3.18661
G1 X107.376 Y145.855 E0.01679
G1 X35.667 Y74.145 E3.18661
G1 X36.201 Y74.145 E0.01679
G1 X107.911 Y145.855 E3.18661
G1 X108.445 Y145.855 E0.01679
G1 X36.735 Y74.145 E3.18661
G1 X37.270 Y74.145 E0.01679
G1 X108.980 Y145.855 E3.18661
G1 X109.514 Y145.855 E0.01679
G1 X37.804 Y74.145 E3.18661
G1 X38.339 Y74.145 E0.01679
G1 X110.049 Y145.855 E3.18661
G1 X110.583 Y145.855 E0.01679
G1 X38.873 Y74.145 E3.18661
G1 X39.408 Y74.145 E0.01679
G1 X111.117 Y145.855 E3.18661
G1 X111.652 Y145.855 E0.01679
G1 X39.942 Y74.145 E3.18661
G1 X40.476 Y74.145 E0.01679
G1 X112.186 Y145.855 E3.18661
G1 X112.721 Y145.855 E0.01679
G1 X41.011 Y74.145 E3.18661
G1 X41.545 Y74.145 E0.01679
G1 X113.255 Y145.855 E3.18661
G1 X113.790 Y145.855 E0.01679
G1 X42.080 Y74.145 E3.18661
G1 X42.614 Y74.145 E0.01679
G1 X114.324 Y145.855 E3.18661
G1 X114.858 Y145.855 E0.01679
G1 X43.149 Y74.145 E3.18661
G1 X43.683 Y74.145 E0.01679
G1 X115.393 Y145.855 E3.18661
G1 X115.927 Y145.855 E0.01679
G1 X44.217 Y74.145 E3.18661
G1 X44.752 Y74.145 E0.01679
G1 X116.462 Y145.855 E3.18661
G1 X116.996 Y145.855 E0.01679
G1 X45.286 Y74.145 E3.18661
G1 X45.821 Y74.145 E0.01679
G1 X117.531 Y145.855 E3.18661
G1 X118.065 Y145.855 E0.01679
G1 X46.355 Y74.145 E3.18661
G1 X46.890 Y74.145 E0.01679
G1 X118.599 Y145.855 E3.18661
G1 X119.134 Y145.855 E0.01679
G1 X47.424 Y74.145 E3.18661
G1 X47.958 Y74.145 E0.01679
G1 X119.668 Y145.855 E3.18661
G1 X120.203 Y145.855 E0.01679
G1 X48.493 Y74.145 E3.18661
G1 X49.027 Y74.145 E0.01679
G1 X120.737 Y145.855 E3.18661
G1 X121.272 Y145.855 E0.01679
G1 X49.562 Y74.145 E3.18661
G1 X50.096 Y74.145 E0.01679
G1 X121.806 Y145.855 E3.18661
G1 X122.340 Y145.855 E0.01679
G1 X50.631 Y74.145 E3.18661
G1 X51.165 Y74.145 E0.01679
G1 X122.875 Y145.855 E3.18661
G1 X123.409 Y145.855 E0.01679
G1 X51.699 Y74.145 E3.18661
G1 X52.234 Y74.145 E0.01679
G1 X123.944 Y145.855 E3.18661
G1 X124.478 Y145.855 E0.01679
G1 X52.768 Y74.145 E3.18661
G1 X53.303 Y74.145 E0.01679
G1 X125.012 Y145.855 E3.18661
G1 X125.547 Y145.855 E0.01679
G1 X53.837 Y74.145 E3.18661
G1 X54.371 Y74.145 E0.01679
G1 X126.081 Y145.855 E3.18661
G1 X126.616 Y145.855 E0.01679
G1 X54.906 Y74.145 E3.18661
G1 X55.440 Y74.145 E0.01679
G1 X127.150 Y145.855 E3.18661
G1 X127.685 Y145.855 E0.01679
G1 X55.975 Y74.145 E3.18661
G1 X56.509 Y74.145 E0.01679
G1 X128.219 Y145.855 E3.18661
G1 X128.753 Y145.855 E0.01679
G1 X57.044 Y74.145 E3.18661
G1 X57.578 Y74.145 E0.01679
G1 X129.288 Y145.855 E3.18661
G1 X129.822 Y145.855 E0.01679
G1 X58.112 Y74.145 E3.18661
G1 X58.647 Y74.145 E0.01679
G1 X130.357 Y145.855 E3.18661
G1 X130.891 Y145.855 E0.01679
G1 X59.181 Y74.145 E3.18661
G1 X59.716 Y74.145 E0.01679
G1 X131.426 Y145.855 E3.18661
G1 X131.960 Y145.855 E0.01679
G1 X60.250 Y74.145 E3.18661
G1 X60.785 Y74.145 E0.01679
G1 X132.494 Y145.855 E3.18661
G1 X133.029 Y145.855 E0.01679
G1 X61.319 Y74.145 E3.18661
G1 X61.853 Y74.145 E0.01679
G1 X133.563 Y145.855 E3.18661
G1 X134.098 Y145.855 E0.01679
G1 X62.388 Y74.145 E3.18661
G1 X62.922 Y74.145 E0.01679
G1 X134.632 Y145.855 E3.18661
G1 X135.167 Y145.855 E0.01679
G1 X63.457 Y74.145 E3.18661
G1 X63.991 Y74.145 E0.01679
G1 X135.701 Y145.855 E3.18661
G1 X136.235 Y145.855 E0.01679
G1 X64.526 Y74.145 E3.18661
G1 X65.060 Y74.145 E0.01679
G1 X136.770 Y145.855 E3.18661
G1 X137.304 Y145.855 E0.01679
G1 X65.594 Y74.145 E3.18661
G1 X66.129 Y74.145 E0.01679
G1 X137.839 Y145.855 E3.18661
G1 X138.373 Y145.855 E0.01679
G1 X66.663 Y74.145 E3.18661
G1 X67.198 Y74.145 E0.01679
G1 X138.908 Y145.855 E3.18661
G1 X139.442 Y145.855 E0.01679
G1 X67.732 Y74.145 E3.18661
G1 X68.267 Y74.145 E0.01679
G1 X139.976 Y145.855 E3.18661
G1 X140.511 Y145.855 E0.01679
G1 X68.801 Y74.145 E3.18661
G1 X69.335 Y74.145 E0.01679
G1 X141.045 Y145.855 E3.18661
G1 X141.580 Y145.855 E0.01679
G1 X69.870 Y74.145 E3.18661
G1 X70.404 Y74.145 E0.01679
G1 X142.114 Y145.855 E3.18661
G1 X142.648 Y145.855 E0.01679
G1 X70.939 Y74.145 E3.18661
G1 X71.473 Y74.145 E0.01679
G1 X143.183 Y145.855 E3.18661
G1 X143.717 Y145.855 E0.01679
G1 X72.007 Y74.145 E3.18661
G1 X72.542 Y74.145 E0.01679
G1 X144.252 Y145.855 E3.18661
G1 X144.786 Y145.855 E0.01679
G1 X73.076 Y74.145 E3.18661
G1 X73.611 Y74.145 E0.01679
G1 X145.321 Y145.855 E3.18661
G1 X145.855 Y145.855 E0.01679
G1 X74.145 Y74.145 E3.18661
G1 X74.680 Y74.145 E0.01679
G1 X146.389 Y145.855 E3.18661
G1 X146.924 Y145.855 E0.01679
G1 X75.214 Y74.145 E3.18661
G1 X75.748 Y74.145 E0.01679
G1 X147.458 Y145.855 E3.18661
G1 X147.993 Y145.855 E0.01679
G1 X76.283 Y74.145 E3.18661
G1 X76.817 Y74.145 E0.01679
G1 X148.527 Y145.855 E3.18661
G1 X149.062 Y145.855 E0.01679
G1 X77.352 Y74.145 E3.18661
G1 X77.886 Y74.145 E0.01679
G1 X149.596 Y145.855 E3.18661
G1 X150.130 Y145.855 E0.01679
G1 X78.421 Y74.145 E3.18661
G1 X78.955 Y74.145 E0.01679
G1 X150.665 Y145.855 E3.18661
G1 X151.199 Y145.855 E0.01679
G1 X79.489 Y74.145 E3.18661
G1 X80.024 Y74.145 E0.01679
