; generated by PrusaSlicer 2.2.0+win64 on 2021-04-27 at 13:16:57 UTC

; 

; external perimeters extrusion width = 0.45mm
; perimeters extrusion width = 0.45mm
; infill extrusion width = 0.45mm
; solid infill extrusion width = 0.45mm
; top infill extrusion width = 0.40mm
; first layer extrusion width = 0.42mm

M201 X500 Y500 Z100 E5000 ; sets maximum accelerations, mm/sec^2
M203 X500 Y500 Z10 E60 ; sets maximum feedrates, mm/sec
M204 P500 R1000 T500 ; sets acceleration (P, T) and retract acceleration (R), mm/sec^2
M205 X8.00 Y8.00 Z0.40 E5.00 ; sets the jerk limits, mm/sec
M205 S0 T0 ; sets the minimum extruding and travel feed rate, mm/sec
M107
G90 ; use absolute coordinates
M83 ; extruder relative mode
M104 S215 ; set extruder temp
M140 S40 ; set bed temp
M190 S40 ; wait for bed temp
M109 S215 ; wait for extruder temp
G28 ; home all
G1 Z2 F240
G1 X2 Y10 F3000
G1 Z0.28 F240
G92 E0.0
G1 Y190 E15.0 F1500.0 ; intro line
G1 X2.3 F5000
G1 Y10 E30 F1200.0 ; intro line
G92 E0.0
G21 ; set units to millimeters
G90 ; use absolute coordinates
M83 ; use relative distances for extrusion
; Filament gcode
;BEFORE_LAYER_CHANGE
;0.2


G1 E-5.00000 F3600.00000
G1 Z0.200 F9000.000
;AFTER_LAYER_CHANGE
;0.2
G1 X24.732 Y57.601
G1 E5.00000 F2400.00000
G1 F1200.000
G1 X25.368 Y57.513 E0.02012
G1 X194.631 Y57.513 E5.30711
G1 X195.533 Y57.692 E0.02884
G1 X196.299 Y58.201 E0.02884
G1 X196.815 Y58.962 E0.02884
G1 X197.004 Y59.862 E0.02884
G1 X197.004 Y160.137 E3.14404
G1 X196.921 Y160.731 E0.01882
G1 X196.693 Y161.286 E0.01882
G1 X196.330 Y161.769 E0.01894
G1 X195.860 Y162.142 E0.01882
G1 X195.268 Y162.399 E0.02024
G1 X194.632 Y162.487 E0.02012
G1 X25.362 Y162.487 E5.30735
G1 X24.763 Y162.407 E0.01894
G1 X24.200 Y162.178 E0.01906
G1 X23.717 Y161.815 E0.01894
G1 X23.341 Y161.343 E0.01894
G1 X23.085 Y160.754 E0.02012
G1 X22.996 Y160.119 E0.02012
G1 X22.996 Y59.871 E3.14320
G1 X23.077 Y59.276 E0.01882
G1 X23.305 Y58.717 E0.01894
G1 X23.668 Y58.234 E0.01894
G1 X24.140 Y57.858 E0.01894
G1 X24.677 Y57.625 E0.01836
G1 E-3.50000 F3600.00000
G1 F7200.000
G1 X25.368 Y57.513 E-0.33238
G1 X27.668 Y57.513 E-1.09262
G1 E-0.07500 F3600.00000
G1 X26.337 Y60.854 F9000.000
G1 E5.00000 F2400.00000
G1 F1200.000
G1 X193.663 Y60.854 E5.24638
G1 X193.663 Y159.146 E3.08187
G1 X26.337 Y159.146 E5.24638
G1 X26.337 Y60.914 E3.07999
G1 X25.960 Y60.477 F9000.000
G1 F1200.000
G1 X194.040 Y60.477 E5.27003
G1 X194.040 Y159.523 E3.10551
G1 X25.960 Y159.523 E5.27003
G1 X25.960 Y60.537 E3.10363
G1 X25.583 Y60.100 F9000.000
G1 F1200.000
G1 X194.417 Y60.100 E5.29367
G1 X194.417 Y159.900 E3.12916
G1 X25.583 Y159.900 E5.29367
G1 X25.583 Y60.160 E3.12728
G1 X25.977 Y60.171 F9000.000
G1 E-3.50000 F3600.00000
G1 F7200.000
G1 X28.583 Y60.159 E-1.42500
G1 E-0.07500 F3600.00000
G1 X193.550 Y61.730 F9000.000
G1 E5.00000 F2400.00000
G1 F1200.000
G1 X192.957 Y61.137 E0.02632
G1 X192.423 Y61.137 E0.01675
G1 X193.380 Y62.094 E0.04248
G1 X193.380 Y62.628 E0.01675
G1 X191.889 Y61.137 E0.06616
G1 X191.355 Y61.137 E0.01675
G1 X193.380 Y63.161 E0.08984
G1 X193.380 Y63.695 E0.01675
G1 X190.822 Y61.137 E0.11352
G1 X190.288 Y61.137 E0.01675
G1 X193.380 Y64.229 E0.13721
G1 X193.380 Y64.763 E0.01675
G1 X189.754 Y61.137 E0.16089
G1 X189.221 Y61.137 E0.01675
G1 X193.380 Y65.296 E0.18457
G1 X193.380 Y65.830 E0.01675
G1 X188.687 Y61.137 E0.20825
G1 X188.153 Y61.137 E0.01675
G1 X193.380 Y66.364 E0.23194
G1 X193.380 Y66.897 E0.01675
G1 X187.620 Y61.137 E0.25562
G1 X187.086 Y61.137 E0.01675
G1 X193.380 Y67.431 E0.27930
G1 X193.380 Y67.965 E0.01675
G1 X186.552 Y61.137 E0.30298
G1 X186.019 Y61.137 E0.01675
G1 X193.380 Y68.498 E0.32667
G1 X193.380 Y69.032 E0.01675
G1 X185.485 Y61.137 E0.35035
G1 X184.951 Y61.137 E0.01675
G1 X193.380 Y69.566 E0.37403
G1 X193.380 Y70.099 E0.01675
G1 X184.418 Y61.137 E0.39771
G1 X183.884 Y61.137 E0.01675
G1 X193.380 Y70.633 E0.42140
G1 X193.380 Y71.167 E0.01675
G1 X183.350 Y61.137 E0.44508
G1 X182.817 Y61.137 E0.01675
G1 X193.380 Y71.700 E0.46876
G1 X193.380 Y72.234 E0.01675
G1 X182.283 Y61.137 E0.49245
G1 X181.749 Y61.137 E0.01675
G1 X193.380 Y72.768 E0.51613
G1 X193.380 Y73.301 E0.01675
G1 X181.216 Y61.137 E0.53981
G1 X180.682 Y61.137 E0.01675
G1 X193.380 Y73.835 E0.56349
G1 X193.380 Y74.369 E0.01675
G1 X180.148 Y61.137 E0.58718
G1 X179.614 Y61.137 E0.01675
G1 X193.380 Y74.902 E0.61086
G1 X193.380 Y75.436 E0.01675
G1 X179.081 Y61.137 E0.63454
G1 X178.547 Y61.137 E0.01675
G1 X193.380 Y75.970 E0.65822
G1 X193.380 Y76.504 E0.01675
G1 X178.013 Y61.137 E0.68191
G1 X177.480 Y61.137 E0.01675
G1 X193.380 Y77.037 E0.70559
G1 X193.380 Y77.571 E0.01675
G1 X176.946 Y61.137 E0.72927
G1 X176.412 Y61.137 E0.01675
G1 X193.380 Y78.105 E0.75295
G1 X193.380 Y78.638 E0.01675
G1 X175.879 Y61.137 E0.77664
G1 X175.345 Y61.137 E0.01675
G1 X193.380 Y79.172 E0.80032
G1 X193.380 Y79.706 E0.01675
G1 X174.811 Y61.137 E0.82400
G1 X174.278 Y61.137 E0.01675
G1 X193.380 Y80.239 E0.84768
G1 X193.380 Y80.773 E0.01675
G1 X173.744 Y61.137 E0.87137
G1 X173.210 Y61.137 E0.01675
G1 X193.380 Y81.307 E0.89505
G1 X193.380 Y81.840 E0.01675
G1 X172.677 Y61.137 E0.91873
G1 X172.143 Y61.137 E0.01675
G1 X193.380 Y82.374 E0.94241
G1 X193.380 Y82.908 E0.01675
G1 X171.609 Y61.137 E0.96610
G1 X171.076 Y61.137 E0.01675
G1 X193.380 Y83.441 E0.98978
G1 X193.380 Y83.975 E0.01675
G1 X170.542 Y61.137 E1.01346
G1 X170.008 Y61.137 E0.01675
G1 X193.380 Y84.509 E1.03714
G1 X193.380 Y85.042 E0.01675
G1 X169.475 Y61.137 E1.06083
G1 X168.941 Y61.137 E0.01675
G1 X193.380 Y85.576 E1.08451
G1 X193.380 Y86.110 E0.01675
G1 X168.407 Y61.137 E1.10819
G1 X167.873 Y61.137 E0.01675
G1 X193.380 Y86.643 E1.13187
G1 X193.380 Y87.177 E0.01675
G1 X167.340 Y61.137 E1.15556
G1 X166.806 Y61.137 E0.01675
G1 X193.380 Y87.711 E1.17924
G1 X193.380 Y88.245 E0.01675
G1 X166.272 Y61.137 E1.20292
G1 X165.739 Y61.137 E0.01675
G1 X193.380 Y88.778 E1.22660
G1 X193.380 Y89.312 E0.01675
G1 X165.205 Y61.137 E1.25029
G1 X164.671 Y61.137 E0.01675
G1 X193.380 Y89.846 E1.27397
G1 X193.380 Y90.379 E0.01675
G1 X164.138 Y61.137 E1.29765
G1 X163.604 Y61.137 E0.01675
G1 X193.380 Y90.913 E1.32134
G1 X193.380 Y91.447 E0.01675
G1 X163.070 Y61.137 E1.34502
G1 X162.537 Y61.137 E0.01675
G1 X193.380 Y91.980 E1.36870
G1 X193.380 Y92.514 E0.01675
G1 X162.003 Y61.137 E1.39238
G1 X161.469 Y61.137 E0.01675
G1 X193.380 Y93.048 E1.41607
G1 X193.380 Y93.581 E0.01675
G1 X160.936 Y61.137 E1.43975
G1 X160.402 Y61.137 E0.01675
G1 X193.380 Y94.115 E1.46343
G1 X193.380 Y94.649 E0.01675
G1 X159.868 Y61.137 E1.48711
G1 X159.335 Y61.137 E0.01675
G1 X193.380 Y95.182 E1.51080
G1 X193.380 Y95.716 E0.01675
G1 X158.801 Y61.137 E1.53448
G1 X158.267 Y61.137 E0.01675
G1 X193.380 Y96.250 E1.55816
G1 X193.380 Y96.783 E0.01675
G1 X157.734 Y61.137 E1.58184
G1 X157.200 Y61.137 E0.01675
G1 X193.380 Y97.317 E1.60553
G1 X193.380 Y97.851 E0.01675
G1 X156.666 Y61.137 E1.62921
G1 X156.132 Y61.137 E0.01675
G1 X193.380 Y98.384 E1.65289
G1 X193.380 Y98.918 E0.01675
G1 X155.599 Y61.137 E1.67657
G1 X155.065 Y61.137 E0.01675
G1 X193.380 Y99.452 E1.70026
G1 X193.380 Y99.986 E0.01675
G1 X154.531 Y61.137 E1.72394
G1 X153.998 Y61.137 E0.01675
G1 X193.380 Y100.519 E1.74762
G1 X193.380 Y101.053 E0.01675
G1 X153.464 Y61.137 E1.77130
G1 X152.930 Y61.137 E0.01675
G1 X193.380 Y101.587 E1.79499
G1 X193.380 Y102.120 E0.01675
G1 X152.397 Y61.137 E1.81867
G1 X151.863 Y61.137 E0.01675
G1 X193.380 Y102.654 E1.84235
G1 X193.380 Y103.188 E0.01675
G1 X151.329 Y61.137 E1.86603
G1 X150.796 Y61.137 E0.01675
G1 X193.380 Y103.721 E1.88972
G1 X193.380 Y104.255 E0.01675
G1 X150.262 Y61.137 E1.91340
G1 X149.728 Y61.137 E0.01675
G1 X193.380 Y104.789 E1.93708
G1 X193.380 Y105.322 E0.01675
G1 X149.195 Y61.137 E1.96076
G1 X148.661 Y61.137 E0.01675
G1 X193.380 Y105.856 E1.98445
G1 X193.380 Y106.390 E0.01675
G1 X148.127 Y61.137 E2.00813
G1 X147.594 Y61.137 E0.01675
G1 X193.380 Y106.923 E2.03181
G1 X193.380 Y107.457 E0.01675
G1 X147.060 Y61.137 E2.05549
G1 X146.526 Y61.137 E0.01675
G1 X193.380 Y107.991 E2.07918
G1 X193.380 Y108.524 E0.01675
G1 X145.993 Y61.137 E2.10286
G1 X145.459 Y61.137 E0.01675
G1 X193.380 Y109.058 E2.12654
G1 X193.380 Y109.592 E0.01675
G1 X144.925 Y61.137 E2.15022
G1 X144.392 Y61.137 E0.01675
G1 X193.380 Y110.125 E2.17391
G1 X193.380 Y110.659 E0.01675
G1 X143.858 Y61.137 E2.19759
G1 X143.324 Y61.137 E0.01675
G1 X193.380 Y111.193 E2.22127
G1 X193.380 Y111.727 E0.01675
G1 X142.790 Y61.137 E2.24496
G1 X142.257 Y61.137 E0.01675
G1 X193.380 Y112.260 E2.26864
G1 X193.380 Y112.794 E0.01675
G1 X141.723 Y61.137 E2.29232
G1 X141.189 Y61.137 E0.01675
G1 X193.380 Y113.328 E2.31600
G1 X193.380 Y113.861 E0.01675
G1 X140.656 Y61.137 E2.33969
G1 X140.122 Y61.137 E0.01675
G1 X193.380 Y114.395 E2.36337
G1 X193.380 Y114.929 E0.01675
G1 X139.588 Y61.137 E2.38705
G1 X139.055 Y61.137 E0.01675
G1 X193.380 Y115.462 E2.41073
G1 X193.380 Y115.996 E0.01675
G1 X138.521 Y61.137 E2.43442
G1 X137.987 Y61.137 E0.01675
G1 X193.380 Y116.530 E2.45810
G1 X193.380 Y117.063 E0.01675
G1 X137.454 Y61.137 E2.48178
G1 X136.920 Y61.137 E0.01675
G1 X193.380 Y117.597 E2.50546
G1 X193.380 Y118.131 E0.01675
G1 X136.386 Y61.137 E2.52915
G1 X135.853 Y61.137 E0.01675
G1 X193.380 Y118.664 E2.55283
G1 X193.380 Y119.198 E0.01675
G1 X135.319 Y61.137 E2.57651
G1 X134.785 Y61.137 E0.01675
G1 X193.380 Y119.732 E2.60019
G1 X193.380 Y120.265 E0.01675
G1 X134.252 Y61.137 E2.62388
G1 X133.718 Y61.137 E0.01675
G1 X193.380 Y120.799 E2.64756
G1 X193.380 Y121.333 E0.01675
G1 X133.184 Y61.137 E2.67124
G1 X132.651 Y61.137 E0.01675
G1 X193.380 Y121.866 E2.69492
G1 X193.380 Y122.400 E0.01675
G1 X132.117 Y61.137 E2.71861
G1 X131.583 Y61.137 E0.01675
G1 X193.380 Y122.934 E2.74229
G1 X193.380 Y123.468 E0.01675
G1 X131.049 Y61.137 E2.76597
G1 X130.516 Y61.137 E0.01675
G1 X193.380 Y124.001 E2.78965
G1 X193.380 Y124.535 E0.01675
G1 X129.982 Y61.137 E2.81334
G1 X129.448 Y61.137 E0.01675
G1 X193.380 Y125.069 E2.83702
G1 X193.380 Y125.602 E0.01675
G1 X128.915 Y61.137 E2.86070
G1 X128.381 Y61.137 E0.01675
G1 X193.380 Y126.136 E2.88438
G1 X193.380 Y126.670 E0.01675
G1 X127.847 Y61.137 E2.90807
G1 X127.314 Y61.137 E0.01675
G1 X193.380 Y127.203 E2.93175
G1 X193.380 Y127.737 E0.01675
G1 X126.780 Y61.137 E2.95543
G1 X126.246 Y61.137 E0.01675
G1 X193.380 Y128.271 E2.97911
G1 X193.380 Y128.804 E0.01675
G1 X125.713 Y61.137 E3.00280
G1 X125.179 Y61.137 E0.01675
G1 X193.380 Y129.338 E3.02648
G1 X193.380 Y129.872 E0.01675
G1 X124.645 Y61.137 E3.05016
G1 X124.112 Y61.137 E0.01675
G1 X193.380 Y130.405 E3.07384
G1 X193.380 Y130.939 E0.01675
G1 X123.578 Y61.137 E3.09753
G1 X123.044 Y61.137 E0.01675
G1 X193.380 Y131.473 E3.12121
G1 X193.380 Y132.006 E0.01675
G1 X122.511 Y61.137 E3.14489
G1 X121.977 Y61.137 E0.01675
G1 X193.380 Y132.540 E3.16858
G1 X193.380 Y133.074 E0.01675
G1 X121.443 Y61.137 E3.19226
G1 X120.910 Y61.137 E0.01675
G1 X193.380 Y133.607 E3.21594
G1 X193.380 Y134.141 E0.01675
G1 X120.376 Y61.137 E3.23962
G1 X119.842 Y61.137 E0.01675
G1 X193.380 Y134.675 E3.26331
G1 X193.380 Y135.209 E0.01675
G1 X119.308 Y61.137 E3.28699
G1 X118.775 Y61.137 E0.01675
G1 X193.380 Y135.742 E3.31067
G1 X193.380 Y136.276 E0.01675
G1 X118.241 Y61.137 E3.33435
G1 X117.707 Y61.137 E0.01675
G1 X193.380 Y136.810 E3.35804
G1 X193.380 Y137.343 E0.01675
G1 X117.174 Y61.137 E3.38172
G1 X116.640 Y61.137 E0.01675
G1 X193.380 Y137.877 E3.40540
G1 X193.380 Y138.411 E0.01675
G1 X116.106 Y61.137 E3.42908
G1 X115.573 Y61.137 E0.01675
G1 X193.380 Y138.944 E3.45277
G1 X193.380 Y139.478 E0.01675
G1 X115.039 Y61.137 E3.47645
G1 X114.505 Y61.137 E0.01675
G1 X193.380 Y140.012 E3.50013
G1 X193.380 Y140.545 E0.01675
G1 X113.972 Y61.137 E3.52381
G1 X113.438 Y61.137 E0.01675
G1 X193.380 Y141.079 E3.54750
G1 X193.380 Y141.613 E0.01675
G1 X112.904 Y61.137 E3.57118
G1 X112.371 Y61.137 E0.01675
G1 X193.380 Y142.146 E3.59486
G1 X193.380 Y142.680 E0.01675
G1 X111.837 Y61.137 E3.61854
G1 X111.303 Y61.137 E0.01675
G1 X193.380 Y143.214 E3.64223
G1 X193.380 Y143.747 E0.01675
G1 X110.770 Y61.137 E3.66591
G1 X110.236 Y61.137 E0.01675
G1 X193.380 Y144.281 E3.68959
G1 X193.380 Y144.815 E0.01675
G1 X109.702 Y61.137 E3.71327
G1 X109.169 Y61.137 E0.01675
G1 X193.380 Y145.348 E3.73696
G1 X193.380 Y145.882 E0.01675
G1 X108.635 Y61.137 E3.76064
G1 X108.101 Y61.137 E0.01675
G1 X193.380 Y146.416 E3.78432
G1 X193.380 Y146.950 E0.01675
G1 X107.567 Y61.137 E3.80800
G1 X107.034 Y61.137 E0.01675
G1 X193.380 Y147.483 E3.83169
G1 X193.380 Y148.017 E0.01675
G1 X106.500 Y61.137 E3.85537
G1 X105.966 Y61.137 E0.01675
G1 X193.380 Y148.551 E3.87905
G1 X193.380 Y149.084 E0.01675
G1 X105.433 Y61.137 E3.90273
G1 X104.899 Y61.137 E0.01675
G1 X193.380 Y149.618 E3.92642
G1 X193.380 Y150.152 E0.01675
G1 X104.365 Y61.137 E3.95010
G1 X103.832 Y61.137 E0.01675
G1 X193.380 Y150.685 E3.97378
G1 X193.380 Y151.219 E0.01675
G1 X103.298 Y61.137 E3.99747
G1 X102.764 Y61.137 E0.01675
G1 X193.380 Y151.753 E4.02115
G1 X193.380 Y152.286 E0.01675
G1 X102.231 Y61.137 E4.04483
G1 X101.697 Y61.137 E0.01675
G1 X193.380 Y152.820 E4.06851
G1 X193.380 Y153.354 E0.01675
G1 X101.163 Y61.137 E4.09220
G1 X100.630 Y61.137 E0.01675
G1 X193.380 Y153.887 E4.11588
G1 X193.380 Y154.421 E0.01675
G1 X100.096 Y61.137 E4.13956
G1 X99.562 Y61.137 E0.01675
G1 X193.380 Y154.955 E4.16324
G1 X193.380 Y155.488 E0.01675
G1 X99.029 Y61.137 E4.18693
G1 X98.495 Y61.137 E0.01675
G1 X193.380 Y156.022 E4.21061
G1 X193.380 Y156.556 E0.01675
G1 X97.961 Y61.137 E4.23429
G1 X97.428 Y61.137 E0.01675
G1 X193.380 Y157.089 E4.25797
G1 X193.380 Y157.623 E0.01675
G1 X96.894 Y61.137 E4.28166
G1 X96.360 Y61.137 E0.01675
G1 X193.380 Y158.157 E4.30534
G1 X193.380 Y158.691 E0.01675
G1 X95.826 Y61.137 E4.32902
G1 X95.293 Y61.137 E0.01675
G1 X193.019 Y158.863 E4.33668
G1 X192.485 Y158.863 E0.01675
G1 X94.759 Y61.137 E4.33668
G1 X94.225 Y61.137 E0.01675
G1 X191.952 Y158.863 E4.33668
G1 X191.418 Y158.863 E0.01675
G1 X93.692 Y61.137 E4.33668
G1 X93.158 Y61.137 E0.01675
G1 X190.884 Y158.863 E4.33668
G1 X190.351 Y158.863 E0.01675
G1 X92.624 Y61.137 E4.33668
G1 X92.091 Y61.137 E0.01675
G1 X189.817 Y158.863 E4.33668
G1 X189.283 Y158.863 E0.01675
G1 X91.557 Y61.137 E4.33668
G1 X91.023 Y61.137 E0.01675
G1 X188.749 Y158.863 E4.33668
G1 X188.216 Y158.863 E0.01675
G1 X90.490 Y61.137 E4.33668
G1 X89.956 Y61.137 E0.01675
G1 X187.682 Y158.863 E4.33668
G1 X187.148 Y158.863 E0.01675
G1 X89.422 Y61.137 E4.33668
G1 X88.889 Y61.137 E0.01675
G1 X186.615 Y158.863 E4.33668
G1 X186.081 Y158.863 E0.01675
G1 X88.355 Y61.137 E4.33668
G1 X87.821 Y61.137 E0.01675
G1 X185.547 Y158.863 E4.33668
G1 X185.014 Y158.863 E0.01675
G1 X87.288 Y61.137 E4.33668
G1 X86.754 Y61.137 E0.01675
G1 X184.480 Y158.863 E4.33668
G1 X183.946 Y158.863 E0.01675
G1 X86.220 Y61.137 E4.33668
G1 X85.687 Y61.137 E0.01675
G1 X183.413 Y158.863 E4.33668
G1 X182.879 Y158.863 E0.01675
G1 X85.153 Y61.137 E4.33668
G1 X84.619 Y61.137 E0.01675
G1 X182.345 Y158.863 E4.33668
G1 X181.812 Y158.863 E0.01675
G1 X84.085 Y61.137 E4.33668
G1 X83.552 Y61.137 E0.01675
G1 X181.278 Y158.863 E4.33668
G1 X180.744 Y158.863 E0.01675
G1 X83.018 Y61.137 E4.33668
G1 X82.484 Y61.137 E0.01675
G1 X180.211 Y158.863 E4.33668
G1 X179.677 Y158.863 E0.01675
G1 X81.951 Y61.137 E4.33668
G1 X81.417 Y61.137 E0.01675
G1 X179.143 Y158.863 E4.33668
G1 X178.610 Y158.863 E0.01675
G1 X80.883 Y61.137 E4.33668
G1 X80.350 Y61.137 E0.01675
G1 X178.076 Y158.863 E4.33668
G1 X177.542 Y158.863 E0.01675
G1 X79.816 Y61.137 E4.33668
G1 X79.282 Y61.137 E0.01675
G1 X177.008 Y158.863 E4.33668
G1 X176.475 Y158.863 E0.01675
G1 X78.749 Y61.137 E4.33668
G1 X78.215 Y61.137 E0.01675
G1 X175.941 Y158.863 E4.33668
G1 X175.407 Y158.863 E0.01675
G1 X77.681 Y61.137 E4.33668
G1 X77.148 Y61.137 E0.01675
G1 X174.874 Y158.863 E4.33668
G1 X174.340 Y158.863 E0.01675
G1 X76.614 Y61.137 E4.33668
G1 X76.080 Y61.137 E0.01675
G1 X173.806 Y158.863 E4.33668
G1 X173.273 Y158.863 E0.01675
G1 X75.547 Y61.137 E4.33668
G1 X75.013 Y61.137 E0.01675
G1 X172.739 Y158.863 E4.33668
G1 X172.205 Y158.863 E0.01675
G1 X74.479 Y61.137 E4.33668
G1 X73.946 Y61.137 E0.01675
G1 X171.672 Y158.863 E4.33668
G1 X171.138 Y158.863 E0.01675
G1 X73.412 Y61.137 E4.33668
G1 X72.878 Y61.137 E0.01675
