; generated by PrusaSlicer 2.2.0+win64 on 2021-04-26 at 05:15:17 UTC

; 

; external perimeters extrusion width = 0.45mm
; perimeters extrusion width = 0.45mm
; infill extrusion width = 0.45mm
; solid infill extrusion width = 0.45mm
; top infill extrusion width = 0.40mm
; first layer extrusion width = 0.42mm

M201 X500 Y500 Z100 E5000 ; sets maximum accelerations, mm/sec^2
M203 X500 Y500 Z10 E60 ; sets maximum feedrates, mm/sec
M204 P500 R1000 T500 ; sets acceleration (P, T) and retract acceleration (R), mm/sec^2
M205 X8.00 Y8.00 Z0.40 E5.00 ; sets the jerk limits, mm/sec
M205 S0 T0 ; sets the minimum extruding and travel feed rate, mm/sec
M107
G90 ; use absolute coordinates
M83 ; extruder relative mode
M104 S215 ; set extruder temp
M140 S40 ; set bed temp
M190 S40 ; wait for bed temp
M109 S215 ; wait for extruder temp
G28 ; home all
G1 Z2 F240
G1 X2 Y10 F3000
G1 Z0.28 F240
G92 E0.0
G1 Y190 E15.0 F1500.0 ; intro line
G1 X2.3 F5000
G1 Y10 E30 F1200.0 ; intro line
G92 E0.0
G21 ; set units to millimeters
G90 ; use absolute coordinates
M83 ; use relative distances for extrusion
; Filament gcode
;BEFORE_LAYER_CHANGE
;0.2


G1 E-5.00000 F3600.00000
G1 Z0.200 F9000.000
;AFTER_LAYER_CHANGE
;0.2
G1 X31.368 Y24.457
G1 E5.00000 F2400.00000
G1 F1200.000
G1 X31.807 Y23.730 E0.02661
G1 X32.177 Y23.391 E0.01574
G1 X32.606 Y23.139 E0.01562
G1 X33.079 Y22.981 E0.01562
G1 X33.578 Y22.926 E0.01574
G1 X185.219 Y22.926 E4.75463
G1 X186.118 Y23.104 E0.02872
G1 X186.883 Y23.608 E0.02872
G1 X187.400 Y24.365 E0.02872
G1 X187.592 Y25.260 E0.02872
G1 X188.820 Y120.485 E2.98597
G1 X188.820 Y194.716 E2.32745
G1 X188.663 Y195.546 E0.02649
G1 X188.225 Y196.269 E0.02649
G1 X187.856 Y196.608 E0.01574
G1 X187.423 Y196.862 E0.01574
G1 X186.946 Y197.020 E0.01574
G1 X186.447 Y197.074 E0.01574
G1 X33.550 Y197.074 E4.79400
G1 X32.715 Y196.920 E0.02661
G1 X31.985 Y196.480 E0.02673
G1 X31.646 Y196.110 E0.01574
G1 X31.392 Y195.677 E0.01574
G1 X31.234 Y195.201 E0.01574
G1 X31.180 Y194.702 E0.01574
G1 X31.212 Y25.295 E5.31164
G1 X31.357 Y24.516 E0.02484
G1 E-3.50000 F3600.00000
G1 F7200.000
G1 X31.807 Y23.730 E-0.42990
G1 X32.177 Y23.391 E-0.23838
G1 X32.606 Y23.139 E-0.23658
G1 X33.079 Y22.981 E-0.23658
G1 X33.578 Y22.926 E-0.23838
G1 X33.673 Y22.926 E-0.04518
G1 E-0.07500 F3600.00000
G1 X34.553 Y26.267 F9000.000
G1 E5.00000 F2400.00000
G1 F1200.000
G1 X184.252 Y26.267 E4.69368
G1 X184.252 Y98.626 E2.26874
G1 X34.553 Y98.626 E4.69368
G1 X34.553 Y26.327 E2.26686
G1 X34.176 Y25.890 F9000.000
G1 F1200.000
G1 X184.629 Y25.890 E4.71733
G1 X184.629 Y99.003 E2.29239
G1 X34.176 Y99.003 E4.71733
G1 X34.176 Y25.950 E2.29051
G1 X33.799 Y25.513 F9000.000
G1 F1200.000
G1 X185.006 Y25.513 E4.74097
G1 X185.006 Y99.380 E2.31604
G1 X33.799 Y99.380 E4.74097
G1 X33.799 Y25.573 E2.31416
G1 X34.195 Y25.573 F9000.000
G1 E-3.50000 F3600.00000
G1 F7200.000
G1 X36.799 Y25.572 E-1.42500
G1 E-0.07500 F3600.00000
G1 X184.138 Y27.144 F9000.000
G1 E5.00000 F2400.00000
G1 F1200.000
G1 X183.544 Y26.550 E0.02638
G1 X183.010 Y26.550 E0.01678
G1 X183.969 Y27.508 E0.04257
G1 X183.969 Y28.043 E0.01678
G1 X182.476 Y26.550 E0.06629
G1 X181.942 Y26.550 E0.01678
G1 X183.969 Y28.577 E0.09002
G1 X183.969 Y29.111 E0.01678
G1 X181.408 Y26.550 E0.11375
G1 X180.874 Y26.550 E0.01678
G1 X183.969 Y29.645 E0.13747
G1 X183.969 Y30.179 E0.01678
G1 X180.339 Y26.550 E0.16120
G1 X179.805 Y26.550 E0.01678
G1 X183.969 Y30.713 E0.18492
G1 X183.969 Y31.248 E0.01678
G1 X179.271 Y26.550 E0.20865
G1 X178.737 Y26.550 E0.01678
G1 X183.969 Y31.782 E0.23237
G1 X183.969 Y32.316 E0.01678
G1 X178.203 Y26.550 E0.25610
G1 X177.669 Y26.550 E0.01678
G1 X183.969 Y32.850 E0.27983
G1 X183.969 Y33.384 E0.01678
G1 X177.134 Y26.550 E0.30355
G1 X176.600 Y26.550 E0.01678
G1 X183.969 Y33.918 E0.32728
G1 X183.969 Y34.453 E0.01678
G1 X176.066 Y26.550 E0.35100
G1 X175.532 Y26.550 E0.01678
G1 X183.969 Y34.987 E0.37473
G1 X183.969 Y35.521 E0.01678
G1 X174.998 Y26.550 E0.39845
G1 X174.464 Y26.550 E0.01678
G1 X183.969 Y36.055 E0.42218
G1 X183.969 Y36.589 E0.01678
G1 X173.929 Y26.550 E0.44590
G1 X173.395 Y26.550 E0.01678
G1 X183.969 Y37.123 E0.46963
G1 X183.969 Y37.658 E0.01678
G1 X172.861 Y26.550 E0.49336
G1 X172.327 Y26.550 E0.01678
G1 X183.969 Y38.192 E0.51708
G1 X183.969 Y38.726 E0.01678
G1 X171.793 Y26.550 E0.54081
G1 X171.259 Y26.550 E0.01678
G1 X183.969 Y39.260 E0.56453
G1 X183.969 Y39.794 E0.01678
G1 X170.724 Y26.550 E0.58826
G1 X170.190 Y26.550 E0.01678
G1 X183.969 Y40.328 E0.61198
G1 X183.969 Y40.863 E0.01678
G1 X169.656 Y26.550 E0.63571
G1 X169.122 Y26.550 E0.01678
G1 X183.969 Y41.397 E0.65944
G1 X183.969 Y41.931 E0.01678
G1 X168.588 Y26.550 E0.68316
G1 X168.054 Y26.550 E0.01678
G1 X183.969 Y42.465 E0.70689
G1 X183.969 Y42.999 E0.01678
G1 X167.519 Y26.550 E0.73061
G1 X166.985 Y26.550 E0.01678
G1 X183.969 Y43.533 E0.75434
G1 X183.969 Y44.068 E0.01678
G1 X166.451 Y26.550 E0.77806
G1 X165.917 Y26.550 E0.01678
G1 X183.969 Y44.602 E0.80179
G1 X183.969 Y45.136 E0.01678
G1 X165.383 Y26.550 E0.82551
G1 X164.849 Y26.550 E0.01678
G1 X183.969 Y45.670 E0.84924
G1 X183.969 Y46.204 E0.01678
G1 X164.314 Y26.550 E0.87297
G1 X163.780 Y26.550 E0.01678
G1 X183.969 Y46.738 E0.89669
G1 X183.969 Y47.273 E0.01678
G1 X163.246 Y26.550 E0.92042
G1 X162.712 Y26.550 E0.01678
G1 X183.969 Y47.807 E0.94414
G1 X183.969 Y48.341 E0.01678
G1 X162.178 Y26.550 E0.96787
G1 X161.644 Y26.550 E0.01678
G1 X183.969 Y48.875 E0.99159
G1 X183.969 Y49.409 E0.01678
G1 X161.109 Y26.550 E1.01532
G1 X160.575 Y26.550 E0.01678
G1 X183.969 Y49.943 E1.03905
G1 X183.969 Y50.478 E0.01678
G1 X160.041 Y26.550 E1.06277
G1 X159.507 Y26.550 E0.01678
G1 X183.969 Y51.012 E1.08650
G1 X183.969 Y51.546 E0.01678
G1 X158.973 Y26.550 E1.11022
G1 X158.439 Y26.550 E0.01678
G1 X183.969 Y52.080 E1.13395
G1 X183.969 Y52.614 E0.01678
G1 X157.904 Y26.550 E1.15767
G1 X157.370 Y26.550 E0.01678
G1 X183.969 Y53.148 E1.18140
G1 X183.969 Y53.683 E0.01678
G1 X156.836 Y26.550 E1.20513
G1 X156.302 Y26.550 E0.01678
G1 X183.969 Y54.217 E1.22885
G1 X183.969 Y54.751 E0.01678
G1 X155.768 Y26.550 E1.25258
G1 X155.234 Y26.550 E0.01678
G1 X183.969 Y55.285 E1.27630
G1 X183.969 Y55.819 E0.01678
G1 X154.699 Y26.550 E1.30003
G1 X154.165 Y26.550 E0.01678
G1 X183.969 Y56.353 E1.32375
G1 X183.969 Y56.888 E0.01678
G1 X153.631 Y26.550 E1.34748
G1 X153.097 Y26.550 E0.01678
G1 X183.969 Y57.422 E1.37120
G1 X183.969 Y57.956 E0.01678
G1 X152.563 Y26.550 E1.39493
G1 X152.029 Y26.550 E0.01678
G1 X183.969 Y58.490 E1.41866
G1 X183.969 Y59.024 E0.01678
G1 X151.494 Y26.550 E1.44238
G1 X150.960 Y26.550 E0.01678
G1 X183.969 Y59.558 E1.46611
G1 X183.969 Y60.093 E0.01678
G1 X150.426 Y26.550 E1.48983
G1 X149.892 Y26.550 E0.01678
G1 X183.969 Y60.627 E1.51356
G1 X183.969 Y61.161 E0.01678
G1 X149.358 Y26.550 E1.53728
G1 X148.824 Y26.550 E0.01678
G1 X183.969 Y61.695 E1.56101
G1 X183.969 Y62.229 E0.01678
G1 X148.289 Y26.550 E1.58474
G1 X147.755 Y26.550 E0.01678
G1 X183.969 Y62.763 E1.60846
G1 X183.969 Y63.298 E0.01678
G1 X147.221 Y26.550 E1.63219
G1 X146.687 Y26.550 E0.01678
G1 X183.969 Y63.832 E1.65591
G1 X183.969 Y64.366 E0.01678
G1 X146.153 Y26.550 E1.67964
G1 X145.619 Y26.550 E0.01678
G1 X183.969 Y64.900 E1.70336
G1 X183.969 Y65.434 E0.01678
G1 X145.084 Y26.550 E1.72709
G1 X144.550 Y26.550 E0.01678
G1 X183.969 Y65.968 E1.75081
G1 X183.969 Y66.503 E0.01678
G1 X144.016 Y26.550 E1.77454
G1 X143.482 Y26.550 E0.01678
G1 X183.969 Y67.037 E1.79827
G1 X183.969 Y67.571 E0.01678
G1 X142.948 Y26.550 E1.82199
G1 X142.414 Y26.550 E0.01678
G1 X183.969 Y68.105 E1.84572
G1 X183.969 Y68.639 E0.01678
G1 X141.879 Y26.550 E1.86944
G1 X141.345 Y26.550 E0.01678
G1 X183.969 Y69.173 E1.89317
G1 X183.969 Y69.708 E0.01678
G1 X140.811 Y26.550 E1.91689
G1 X140.277 Y26.550 E0.01678
G1 X183.969 Y70.242 E1.94062
G1 X183.969 Y70.776 E0.01678
G1 X139.743 Y26.550 E1.96435
G1 X139.209 Y26.550 E0.01678
G1 X183.969 Y71.310 E1.98807
G1 X183.969 Y71.844 E0.01678
G1 X138.674 Y26.550 E2.01180
G1 X138.140 Y26.550 E0.01678
G1 X183.969 Y72.378 E2.03552
G1 X183.969 Y72.913 E0.01678
G1 X137.606 Y26.550 E2.05925
G1 X137.072 Y26.550 E0.01678
G1 X183.969 Y73.447 E2.08297
G1 X183.969 Y73.981 E0.01678
G1 X136.538 Y26.550 E2.10670
G1 X136.004 Y26.550 E0.01678
G1 X183.969 Y74.515 E2.13042
G1 X183.969 Y75.049 E0.01678
G1 X135.469 Y26.550 E2.15415
G1 X134.935 Y26.550 E0.01678
G1 X183.969 Y75.583 E2.17788
G1 X183.969 Y76.118 E0.01678
G1 X134.401 Y26.550 E2.20160
G1 X133.867 Y26.550 E0.01678
G1 X183.969 Y76.652 E2.22533
G1 X183.969 Y77.186 E0.01678
G1 X133.333 Y26.550 E2.24905
G1 X132.799 Y26.550 E0.01678
G1 X183.969 Y77.720 E2.27278
G1 X183.969 Y78.254 E0.01678
G1 X132.264 Y26.550 E2.29650
G1 X131.730 Y26.550 E0.01678
G1 X183.969 Y78.788 E2.32023
G1 X183.969 Y79.323 E0.01678
G1 X131.196 Y26.550 E2.34396
G1 X130.662 Y26.550 E0.01678
G1 X183.969 Y79.857 E2.36768
G1 X183.969 Y80.391 E0.01678
G1 X130.128 Y26.550 E2.39141
G1 X129.594 Y26.550 E0.01678
G1 X183.969 Y80.925 E2.41513
G1 X183.969 Y81.459 E0.01678
G1 X129.059 Y26.550 E2.43886
G1 X128.525 Y26.550 E0.01678
G1 X183.969 Y81.993 E2.46258
G1 X183.969 Y82.528 E0.01678
G1 X127.991 Y26.550 E2.48631
G1 X127.457 Y26.550 E0.01678
G1 X183.969 Y83.062 E2.51004
G1 X183.969 Y83.596 E0.01678
G1 X126.923 Y26.550 E2.53376
G1 X126.389 Y26.550 E0.01678
G1 X183.969 Y84.130 E2.55749
G1 X183.969 Y84.664 E0.01678
G1 X125.854 Y26.550 E2.58121
G1 X125.320 Y26.550 E0.01678
G1 X183.969 Y85.198 E2.60494
G1 X183.969 Y85.733 E0.01678
G1 X124.786 Y26.550 E2.62866
G1 X124.252 Y26.550 E0.01678
G1 X183.969 Y86.267 E2.65239
G1 X183.969 Y86.801 E0.01678
G1 X123.718 Y26.550 E2.67611
G1 X123.184 Y26.550 E0.01678
G1 X183.969 Y87.335 E2.69984
G1 X183.969 Y87.869 E0.01678
G1 X122.649 Y26.550 E2.72357
G1 X122.115 Y26.550 E0.01678
G1 X183.969 Y88.403 E2.74729
G1 X183.969 Y88.938 E0.01678
G1 X121.581 Y26.550 E2.77102
G1 X121.047 Y26.550 E0.01678
G1 X183.969 Y89.472 E2.79474
G1 X183.969 Y90.006 E0.01678
G1 X120.513 Y26.550 E2.81847
G1 X119.979 Y26.550 E0.01678
G1 X183.969 Y90.540 E2.84219
G1 X183.969 Y91.074 E0.01678
G1 X119.444 Y26.550 E2.86592
G1 X118.910 Y26.550 E0.01678
G1 X183.969 Y91.608 E2.88965
G1 X183.969 Y92.143 E0.01678
G1 X118.376 Y26.550 E2.91337
G1 X117.842 Y26.550 E0.01678
G1 X183.969 Y92.677 E2.93710
G1 X183.969 Y93.211 E0.01678
G1 X117.308 Y26.550 E2.96082
G1 X116.774 Y26.550 E0.01678
G1 X183.969 Y93.745 E2.98455
G1 X183.969 Y94.279 E0.01678
G1 X116.239 Y26.550 E3.00827
G1 X115.705 Y26.550 E0.01678
G1 X183.969 Y94.813 E3.03200
G1 X183.969 Y95.348 E0.01678
G1 X115.171 Y26.550 E3.05572
G1 X114.637 Y26.550 E0.01678
G1 X183.969 Y95.882 E3.07945
G1 X183.969 Y96.416 E0.01678
G1 X114.103 Y26.550 E3.10318
G1 X113.569 Y26.550 E0.01678
G1 X183.969 Y96.950 E3.12690
G1 X183.969 Y97.484 E0.01678
G1 X113.034 Y26.550 E3.15063
G1 X112.500 Y26.550 E0.01678
G1 X183.969 Y98.018 E3.17435
G1 X183.969 Y98.343 E0.01019
G1 X183.759 Y98.343 E0.00659
G1 X111.966 Y26.550 E3.18876
G1 X111.432 Y26.550 E0.01678
G1 X183.225 Y98.343 E3.18876
G1 X182.690 Y98.343 E0.01678
G1 X110.898 Y26.550 E3.18876
G1 X110.364 Y26.550 E0.01678
G1 X182.156 Y98.343 E3.18876
G1 X181.622 Y98.343 E0.01678
G1 X109.829 Y26.550 E3.18876
G1 X109.295 Y26.550 E0.01678
G1 X181.088 Y98.343 E3.18876
G1 X180.554 Y98.343 E0.01678
G1 X108.761 Y26.550 E3.18876
G1 X108.227 Y26.550 E0.01678
G1 X180.020 Y98.343 E3.18876
G1 X179.485 Y98.343 E0.01678
G1 X107.693 Y26.550 E3.18876
G1 X107.159 Y26.550 E0.01678
G1 X178.951 Y98.343 E3.18876
G1 X178.417 Y98.343 E0.01678
G1 X106.624 Y26.550 E3.18876
G1 X106.090 Y26.550 E0.01678
G1 X177.883 Y98.343 E3.18876
G1 X177.349 Y98.343 E0.01678
G1 X105.556 Y26.550 E3.18876
G1 X105.022 Y26.550 E0.01678
G1 X176.815 Y98.343 E3.18876
G1 X176.280 Y98.343 E0.01678
G1 X104.488 Y26.550 E3.18876
G1 X103.954 Y26.550 E0.01678
G1 X175.746 Y98.343 E3.18876
G1 X175.212 Y98.343 E0.01678
G1 X103.419 Y26.550 E3.18876
G1 X102.885 Y26.550 E0.01678
G1 X174.678 Y98.343 E3.18876
G1 X174.144 Y98.343 E0.01678
G1 X102.351 Y26.550 E3.18876
G1 X101.817 Y26.550 E0.01678
G1 X173.610 Y98.343 E3.18876
G1 X173.075 Y98.343 E0.01678
G1 X101.283 Y26.550 E3.18876
G1 X100.749 Y26.550 E0.01678
G1 X172.541 Y98.343 E3.18876
G1 X172.007 Y98.343 E0.01678
G1 X100.214 Y26.550 E3.18876
G1 X99.680 Y26.550 E0.01678
G1 X171.473 Y98.343 E3.18876
G1 X170.939 Y98.343 E0.01678
G1 X99.146 Y26.550 E3.18876
G1 X98.612 Y26.550 E0.01678
G1 X170.405 Y98.343 E3.18876
G1 X169.870 Y98.343 E0.01678
G1 X98.078 Y26.550 E3.18876
G1 X97.544 Y26.550 E0.01678
G1 X169.336 Y98.343 E3.18876
G1 X168.802 Y98.343 E0.01678
G1 X97.009 Y26.550 E3.18876
G1 X96.475 Y26.550 E0.01678
G1 X168.268 Y98.343 E3.18876
G1 X167.734 Y98.343 E0.01678
G1 X95.941 Y26.550 E3.18876
G1 X95.407 Y26.550 E0.01678
G1 X167.200 Y98.343 E3.18876
G1 X166.665 Y98.343 E0.01678
G1 X94.873 Y26.550 E3.18876
G1 X94.339 Y26.550 E0.01678
G1 X166.131 Y98.343 E3.18876
G1 X165.597 Y98.343 E0.01678
G1 X93.804 Y26.550 E3.18876
G1 X93.270 Y26.550 E0.01678
G1 X165.063 Y98.343 E3.18876
G1 X164.529 Y98.343 E0.01678
G1 X92.736 Y26.550 E3.18876
G1 X92.202 Y26.550 E0.01678
G1 X163.995 Y98.343 E3.18876
G1 X163.460 Y98.343 E0.01678
G1 X91.668 Y26.550 E3.18876
G1 X91.134 Y26.550 E0.01678
G1 X162.926 Y98.343 E3.18876
G1 X162.392 Y98.343 E0.01678
G1 X90.599 Y26.550 E3.18876
G1 X90.065 Y26.550 E0.01678
G1 X161.858 Y98.343 E3.18876
G1 X161.324 Y98.343 E0.01678
G1 X89.531 Y26.550 E3.18876
G1 X88.997 Y26.550 E0.01678
G1 X160.790 Y98.343 E3.18876
G1 X160.255 Y98.343 E0.01678
G1 X88.463 Y26.550 E3.18876
G1 X87.929 Y26.550 E0.01678
G1 X159.721 Y98.343 E3.18876
G1 X159.187 Y98.343 E0.01678
G1 X87.394 Y26.550 E3.18876
G1 X86.860 Y26.550 E0.01678
G1 X158.653 Y98.343 E3.18876
G1 X158.119 Y98.343 E0.01678
G1 X86.326 Y26.550 E3.18876
G1 X85.792 Y26.550 E0.01678
G1 X157.585 Y98.343 E3.18876
G1 X157.050 Y98.343 E0.01678
G1 X85.258 Y26.550 E3.18876
G1 X84.724 Y26.550 E0.01678
G1 X156.516 Y98.343 E3.18876
G1 X155.982 Y98.343 E0.01678
G1 X84.189 Y26.550 E3.18876
G1 X83.655 Y26.550 E0.01678
G1 X155.448 Y98.343 E3.18876
G1 X154.914 Y98.343 E0.01678
G1 X83.121 Y26.550 E3.18876
G1 X82.587 Y26.550 E0.01678
G1 X154.380 Y98.343 E3.18876
G1 X153.845 Y98.343 E0.01678
G1 X82.053 Y26.550 E3.18876
G1 X81.519 Y26.550 E0.01678
G1 X153.311 Y98.343 E3.18876
G1 X152.777 Y98.343 E0.01678
G1 X80.984 Y26.550 E3.18876
G1 X80.450 Y26.550 E0.01678
G1 X152.243 Y98.343 E3.18876
G1 X151.709 Y98.343 E0.01678
G1 X79.916 Y26.550 E3.18876
G1 X79.382 Y26.550 E0.01678
G1 X151.175 Y98.343 E3.18876
G1 X150.640 Y98.343 E0.01678
G1 X78.848 Y26.550 E3.18876
G1 X78.314 Y26.550 E0.01678
G1 X150.106 Y98.343 E3.18876
G1 X149.572 Y98.343 E0.01678
G1 X77.779 Y26.550 E3.18876
G1 X77.245 Y26.550 E0.01678
G1 X149.038 Y98.343 E3.18876
G1 X148.504 Y98.343 E0.01678
G1 X76.711 Y26.550 E3.18876
G1 X76.177 Y26.550 E0.01678
G1 X147.970 Y98.343 E3.18876
G1 X147.435 Y98.343 E0.01678
G1 X75.643 Y26.550 E3.18876
G1 X75.109 Y26.550 E0.01678
G1 X146.901 Y98.343 E3.18876
G1 X146.367 Y98.343 E0.01678
G1 X74.574 Y26.550 E3.18876
G1 X74.040 Y26.550 E0.01678
G1 X145.833 Y98.343 E3.18876
G1 X145.299 Y98.343 E0.01678
G1 X73.506 Y26.550 E3.18876
G1 X72.972 Y26.550 E0.01678
G1 X144.765 Y98.343 E3.18876
G1 X144.230 Y98.343 E0.01678
G1 X72.438 Y26.550 E3.18876
G1 X71.904 Y26.550 E0.01678
G1 X143.696 Y98.343 E3.18876
G1 X143.162 Y98.343 E0.01678
G1 X71.369 Y26.550 E3.18876
G1 X70.835 Y26.550 E0.01678
G1 X142.628 Y98.343 E3.18876
G1 X142.094 Y98.343 E0.01678
G1 X70.301 Y26.550 E3.18876
G1 X69.767 Y26.550 E0.01678
G1 X141.560 Y98.343 E3.18876
G1 X141.025 Y98.343 E0.01678
G1 X69.233 Y26.550 E3.18876
G1 X68.699 Y26.550 E0.01678
G1 X140.491 Y98.343 E3.18876
G1 X139.957 Y98.343 E0.01678
G1 X68.164 Y26.550 E3.18876
G1 X67.630 Y26.550 E0.01678
G1 X139.423 Y98.343 E3.18876
G1 X138.889 Y98.343 E0.01678
G1 X67.096 Y26.550 E3.18876
G1 X66.562 Y26.550 E0.01678
G1 X138.355 Y98.343 E3.18876
G1 X137.820 Y98.343 E0.01678
G1 X66.028 Y26.550 E3.18876
G1 X65.494 Y26.550 E0.01678
G1 X137.286 Y98.343 E3.18876
G1 X136.752 Y98.343 E0.01678
G1 X64.959 Y26.550 E3.18876
G1 X64.425 Y26.550 E0.01678
G1 X136.218 Y98.343 E3.18876
G1 X135.684 Y98.343 E0.01678
G1 X63.891 Y26.550 E3.18876
G1 X63.357 Y26.550 E0.01678
